src/assets/icons/itinerary-line-tram-11.svg

<svg version="1.1" id="Calque_1" x="0" y="0" viewBox="0 0 500 500" xml:space="preserve"><path id="border" d="M87.5 0C39.2 0 0 39.2 0 87.5v325C0 460.8 39.2 500 87.5 500h325c48.3 0 87.5-39.2 87.5-87.5v-325C500 39.2 460.8 0 412.5 0h-325zm0 37.5h325c27.6 0 50 22.4 50 50v325c0 27.6-22.4 50-50 50h-325c-27.6 0-50-22.4-50-50v-325c0-27.6 22.4-50 50-50z" fill="#0f87c9"/><path id="tens" d="M172.1 380.2V175.5c-8.9 7-35 20.6-44.6 25.5l-13.7 6.9-17.6-39.8 15.9-7.4c30.2-14.4 58.2-31.7 70-41h45.4v260.5h-55.4" fill="#0f87c9"/><path id="units" d="M325.9 380.2V175.5c-8.9 7-35 20.6-44.6 25.5l-13.7 6.9-17.6-39.8 15.9-7.4c30.2-14.4 58.2-31.7 70-41h45.4v260.5h-55.4" fill="#0f87c9"/></svg>

<?xml version="1.0" encoding="utf-8"?>
<svg version="1.1" id="Calque_1" xmlns="http://www.w3.org/2000/svg" xmlns:xlink="http://www.w3.org/1999/xlink" x="0px" y="0px"
	 viewBox="0 0 500 500" style="enable-background:new 0 0 500 500;" xml:space="preserve">
<style type="text/css">
	.st0{fill:#0F87C9;}
</style>
  <path id="border" class="st0" d="M 87.5 0 C 39.2 0 0 39.2 0 87.5 L 0 412.5 C 0 460.8 39.2 500 87.5 500 L 412.5 500 C 460.8 500 500 460.8 500 412.5 L 500 87.5 C 500 39.2 460.8 0 412.5 0 L 87.5 0 z M 87.5 37.5 L 412.5 37.5 C 440.1 37.5 462.5 59.9 462.5 87.5 L 462.5 412.5 C 462.5 440.1 440.1 462.5 412.5 462.5 L 87.5 462.5 C 59.9 462.5 37.5 440.1 37.5 412.5 L 37.5 87.5 C 37.5 59.9 59.9 37.5 87.5 37.5 z " />
  <path id="tens" class="st0" d="M172.1,380.2V175.5c-8.9,7-35,20.6-44.6,25.5l-13.7,6.9l-17.6-39.8l15.9-7.4  c30.2-14.4,58.2-31.7,70-41h45.4v260.5H172.1" />
  <path id="units" class="st0" d="M325.9,380.2V175.5c-8.9,7-35,20.6-44.6,25.5l-13.7,6.9L250,168.1l15.9-7.4  c30.2-14.4,58.2-31.7,70-41h45.4v260.5H325.9" />
</svg>
